flags/nz.svg

<svg width="512" height="512" viewBox="0 0 512 512" fill="none" xmlns="http://www.w3.org/2000/svg">
<rect width="512" height="512" fill="var(--flag-palette-navy, #002266)"/>
<rect width="256" height="256" fill="var(--flag-palette-navy, #002266)"/>
<path d="M232 256H256V232L152 128L256 24V0H232L128 104L24 0H0V24L104 128L0 232V256H24L128 152L232 256Z" fill="var(--flag-palette-white, #eeeeee)"/>
<path d="M256 160V96H160V0H96V96H0V160H96V256H160V160H256Z" fill="var(--flag-palette-white, #eeeeee)"/>
<path d="M256 144V112H144V0H112V112H0V144H112V256H144V144H256Z" fill="var(--flag-palette-bright-red, #d80027)"/>
<path d="M0 16V0L96 96H80L0 16Z" fill="var(--flag-palette-bright-red, #d80027)"/>
<path d="M256 240L256 256L160 160L176 160L256 240Z" fill="var(--flag-palette-bright-red, #d80027)"/>
<path d="M16 256L0 256L96 160L96 176L16 256Z" fill="var(--flag-palette-bright-red, #d80027)"/>
<path d="M240 -6.99382e-07L256 0L160 96L160 80L240 -6.99382e-07Z" fill="var(--flag-palette-bright-red, #d80027)"/>
<path d="M451.356 200.349L456.881 217.355H474.762L460.296 227.865L465.822 244.87L451.356 234.361L436.889 244.87L442.415 227.865L427.948 217.355H445.829L451.356 200.349Z" fill="var(--flag-palette-bright-red, #d80027)"/>
<path fill-rule="evenodd" clip-rule="evenodd" d="M451.356 189.994L459.206 214.155H484.611L464.058 229.087L471.909 253.247L451.356 238.316L430.802 253.247L438.653 229.087L418.099 214.155H443.504L451.356 189.994ZM451.355 210.704L448.154 220.555H437.797L446.177 226.643L442.976 236.493L451.356 230.406L459.735 236.493L456.534 226.643L464.913 220.555H454.556L451.355 210.704Z" fill="var(--flag-palette-white, #eeeeee)"/>
<path d="M387.437 322.782L395.726 348.292H422.547L400.847 364.056L409.137 389.565L387.437 373.8L365.737 389.565L374.027 364.056L352.327 348.292H379.148L387.437 322.782Z" fill="var(--flag-palette-bright-red, #d80027)"/>
<path fill-rule="evenodd" clip-rule="evenodd" d="M387.437 312.428L398.051 345.093H432.396L404.609 365.279L415.224 397.944L387.437 377.756L359.649 397.944L370.265 365.279L342.477 345.093H376.823L387.437 312.428ZM387.437 333.138L381.473 351.493H362.176L377.789 362.834L371.824 381.188L387.437 369.845L403.049 381.188L397.085 362.834L412.697 351.493H393.401L387.437 333.138Z" fill="var(--flag-palette-white, #eeeeee)"/>
<path d="M389.851 122.436L396.759 143.695H419.11L401.026 156.83L407.934 178.088L389.851 164.949L371.769 178.088L378.676 156.83L360.594 143.695H382.944L389.851 122.436Z" fill="var(--flag-palette-bright-red, #d80027)"/>
<path fill-rule="evenodd" clip-rule="evenodd" d="M389.85 112.08L399.084 140.494H428.961L404.788 158.052L414.021 186.466L389.851 168.904L365.682 186.466L374.914 158.052L350.744 140.494H380.619L389.85 112.08ZM389.851 132.791L385.269 146.894H370.444L382.438 155.607L377.856 169.709L389.851 160.993L401.846 169.709L397.264 155.607L409.259 146.894H394.434L389.851 132.791Z" fill="var(--flag-palette-white, #eeeeee)"/>
<path d="M328.348 199.606L336.636 225.116H363.458L341.758 240.88L350.048 266.389L328.348 250.624L306.648 266.389L314.938 240.88L293.238 225.116H320.059L328.348 199.606Z" fill="var(--flag-palette-bright-red, #d80027)"/>
<path fill-rule="evenodd" clip-rule="evenodd" d="M328.348 189.251L338.961 221.917H373.307L345.52 242.103L356.135 274.767L328.348 254.58L300.56 274.767L311.176 242.103L283.388 221.917H317.734L328.348 189.251ZM328.348 209.962L322.384 228.317H303.087L318.7 239.658L312.735 258.012L328.348 246.669L343.96 258.012L337.996 239.658L353.608 228.317H334.311L328.348 209.962Z" fill="var(--flag-palette-white, #eeeeee)"/>
</svg>

<svg xmlns="http://www.w3.org/2000/svg" width="512" height="512" fill="none"><path fill="#026" d="M0 0h512v512H0z"/><path fill="#026" d="M0 0h256v256H0z"/><path fill="#EEE" d="M232 256h24v-24L152 128 256 24V0h-24L128 104 24 0H0v24l104 104L0 232v24h24l104-104z"/><path fill="#EEE" d="M256 160V96h-96V0H96v96H0v64h96v96h64v-96z"/><path fill="var(--flag-palette-bright-red, #d80027)" d="M256 144v-32H144V0h-32v112H0v32h112v112h32V144z"/><path fill="var(--flag-palette-bright-red, #d80027)" d="M0 16V0l96 96H80zm256 224v16l-96-96h16zM16 256H0l96-96v16zM240 0h16l-96 96V80zm211.4 200.3 5.5 17h17.9L460.3 228l5.5 17-14.4-10.5-14.5 10.5 5.5-17-14.5-10.5h18z"/><path fill="#EEE" fill-rule="evenodd" d="m451.4 190 7.8 24.2h25.4L464.1 229l7.8 24.1-20.5-14.9-20.6 15 7.9-24.2-20.6-15h25.4zm0 20.7-3.2 9.9h-10.4l8.4 6-3.2 9.9 8.4-6 8.3 6-3.2-9.9 8.4-6h-10.3z" clip-rule="evenodd"/><path fill="var(--flag-palette-bright-red, #d80027)" d="m387.4 322.8 8.3 25.5h26.8L400.8 364l8.3 25.5-21.7-15.8-21.7 15.8L374 364l-21.7-15.8h26.8z"/><path fill="#EEE" fill-rule="evenodd" d="m387.4 312.4 10.7 32.7h34.3l-27.8 20.2 10.6 32.6-27.8-20.1-27.8 20.1 10.7-32.6-27.8-20.2h34.3zm0 20.7-6 18.4h-19.2l15.6 11.3-6 18.4 15.6-11.4 15.6 11.4-6-18.4 15.7-11.3h-19.3z" clip-rule="evenodd"/><path fill="var(--flag-palette-bright-red, #d80027)" d="m389.9 122.4 6.9 21.3H419l-18 13.1 6.8 21.3-18-13.2-18.1 13.2 6.9-21.3-18.1-13.1h22.3z"/><path fill="#EEE" fill-rule="evenodd" d="m389.9 112 9.2 28.5H429L404.8 158l9.2 28.4-24.1-17.6-24.2 17.6 9.2-28.4-24.2-17.6h30zm0 20.8-4.6 14h-14.9l12 8.8-4.5 14.1 12-8.7 12 8.7-4.6-14 12-8.8h-14.9z" clip-rule="evenodd"/><path fill="var(--flag-palette-bright-red, #d80027)" d="m328.3 199.6 8.3 25.5h26.9L341.8 241l8.2 25.5-21.7-15.8-21.7 15.8 8.3-25.5-21.7-15.8h26.9z"/><path fill="#EEE" fill-rule="evenodd" d="m328.3 189.3 10.7 32.6h34.3l-27.8 20.2 10.6 32.7-27.8-20.2-27.7 20.2 10.6-32.7-27.8-20.2h34.3zm0 20.7-6 18.3h-19.2l15.6 11.4-6 18.3 15.6-11.3L344 258l-6-18.3 15.6-11.4h-19.3z" clip-rule="evenodd"/></svg>
